!!!Genre:	Sher
!!!Mode:	Minor
!!!Listening/dance:	dance
!!!One_Mode:	no
**kern
*I"P1
*clefG2
*k[b-e-]
*g:
*M2/4
*>A
*>bM
*B-:
8b-
=1
(16b-LL
16ddJ)
8ddJ
16ddLL
16ccJ
8b-J
=2
4b-
8.ccTL
16b-Jk
=3
(16b-LL
16ddJ)
8ddJ
16ddLL
16ccJ
8b-J
=4
4b-
8r
8dd
=5
(16ddLL
16ffJ
8ee-J)
16ee-LL
16ddJ
8ccJ
=6
4cc
4dd
=7
8ee-L
8ffJ
8ddL
8b-J
=8
(4.ccT
8b-)
=9
8ddL
8ddJ
16ddLL
16ccJ
8b-J
=10
4b-
8.ccTL
16b-Jk
=11
(16b-LL
16ddJ)
8ddJ
16ddLL
16ccJ
8b-J
=12
4b-
4r
*>eM
*g:
=13
8fL
24b-L
24cc
24b-JJ
8aL
8b-J
=14
8ccL
8b-J
4dd
=15
(16ddLL
16ccJ
8b-J)
(16b-LL
16aJ
8gJ)
=16
4g
4gg
=17:|!
2g
=18||
*>bM
*B-:
*>B
8ddL
16ffL
16ffJJ
8eenL
8ffJ
=19
8ddL
8b-J
8ccL
8b-J
=20
8ddL
16ffL
16ffJJ
8eenL
8ffJ
=21
8ddL
8b-
8cc
8b-J
*>eM
*>bM
*C:frey
=22
8ddL
8ff
8een
8ffJ
=23
8aa-XL
8gg
8ff
8eenJ
=24
8dd-XL
8cc
8ff
8dd-J
=25
2ccT
*>eM
*g:
=26
8b-L
8a
8b-
8ccJ
=27
8dd-X
4cc
(16b-LL
16ddnJJ)
=28
(16ddLL
16ccJ
8b-J)
(16b-LL
16aJ
8gJ)
=29
4g
4r
==
*-
